logos/spike-interface.svg

<?xml version="1.0" encoding="UTF-8"?>
<!DOCTYPE svg PUBLIC "-//W3C//DTD SVG 1.1//EN" "http://www.w3.org/Graphics/SVG/1.1/DTD/svg11.dtd">
<svg xmlns="http://www.w3.org/2000/svg" version="1.1" width="200px" height="200px" style="shape-rendering:geometricPrecision; text-rendering:geometricPrecision; image-rendering:optimizeQuality; fill-rule:evenodd; clip-rule:evenodd" xmlns:xlink="http://www.w3.org/1999/xlink">
<g><path style="opacity:0.475" fill="#777884" d="M 122.5,57.5 C 122.44,58.0431 122.107,58.3764 121.5,58.5C 116.514,55.6658 111.18,54.8325 105.5,56C 102.848,58.848 100.848,62.0147 99.5,65.5C 100.501,55.6683 105.834,51.8349 115.5,54C 118.069,54.8984 120.402,56.065 122.5,57.5 Z"/></g>
<g><path style="opacity:1" fill="#8d8e9a" d="M 122.5,57.5 C 124.153,57.6596 125.486,58.3263 126.5,59.5C 123.616,64.1072 121.283,69.1072 119.5,74.5C 119.957,75.2975 120.624,75.6309 121.5,75.5C 119.662,76.6783 117.995,76.345 116.5,74.5C 118.772,73.2033 119.605,71.2033 119,68.5C 116.631,68.7266 114.131,68.8933 111.5,69C 110.386,70.5699 109.053,71.9032 107.5,73C 109.169,75.3561 111.169,76.1895 113.5,75.5C 113.653,78.5353 112.32,80.5353 109.5,81.5C 109.721,80.2652 110.388,79.2652 111.5,78.5C 107.135,75.9862 102.801,73.4862 98.5,71C 99.4061,69.3005 99.7394,67.4672 99.5,65.5C 100.848,62.0147 102.848,58.848 105.5,56C 111.18,54.8325 116.514,55.6658 121.5,58.5C 122.107,58.3764 122.44,58.0431 122.5,57.5 Z"/></g>
<g><path style="opacity:1" fill="#737480" d="M 126.5,59.5 C 127.338,59.8417 127.672,60.5084 127.5,61.5C 127.527,63.1993 128.194,64.5326 129.5,65.5C 125.69,64.976 123.69,66.6426 123.5,70.5C 122.201,72.1534 122.534,73.6534 124.5,75C 123.906,75.4643 123.239,75.631 122.5,75.5C 122.167,75.5 121.833,75.5 121.5,75.5C 120.624,75.6309 119.957,75.2975 119.5,74.5C 121.283,69.1072 123.616,64.1072 126.5,59.5 Z"/></g>
<g><path style="opacity:0.886" fill="#656673" d="M 127.5,61.5 C 134.365,65.7648 141.365,69.7648 148.5,73.5C 148.631,74.3764 148.298,75.0431 147.5,75.5C 144.423,73.295 141.09,71.6284 137.5,70.5C 134.974,68.5457 132.307,66.879 129.5,65.5C 128.194,64.5326 127.527,63.1993 127.5,61.5 Z"/></g>
<g><path style="opacity:1" fill="#7d7e8a" d="M 116.5,74.5 C 115.391,74.5569 114.391,74.8902 113.5,75.5C 111.169,76.1895 109.169,75.3561 107.5,73C 109.053,71.9032 110.386,70.5699 111.5,69C 114.131,68.8933 116.631,68.7266 119,68.5C 119.605,71.2033 118.772,73.2033 116.5,74.5 Z"/></g>
<g><path style="opacity:0.926" fill="#747481" d="M 99.5,65.5 C 99.7394,67.4672 99.4061,69.3005 98.5,71C 102.801,73.4862 107.135,75.9862 111.5,78.5C 110.388,79.2652 109.721,80.2652 109.5,81.5C 104.012,96.4619 98.0124,111.129 91.5,125.5C 90.3871,124.054 90.2204,122.387 91,120.5C 92.8141,115.902 94.3141,111.236 95.5,106.5C 99.7138,97.5639 103.714,88.3973 107.5,79C 106.644,77.4053 105.311,76.572 103.5,76.5C 102.791,75.596 101.791,75.2627 100.5,75.5C 95.6371,87.8814 90.8037,100.215 86,112.5C 85.059,114.061 83.8924,115.395 82.5,116.5C 81.7025,116.043 81.3691,115.376 81.5,114.5C 86.414,100.838 91.7473,87.3381 97.5,74C 96.6033,70.8452 97.27,68.0119 99.5,65.5 Z"/></g>
<g><path style="opacity:1" fill="#888894" d="M 103.5,76.5 C 101.83,78.8827 100.496,81.5493 99.5,84.5C 99.7093,85.086 100.043,85.586 100.5,86C 98.3852,89.8636 96.0519,93.8636 93.5,98C 93.8333,98.3333 94.1667,98.6667 94.5,99C 92.5,103 90.5,107 88.5,111C 89.056,111.383 89.3893,111.883 89.5,112.5C 89.19,113.738 88.69,113.738 88,112.5C 85.4459,120.186 82.1126,127.853 78,135.5C 77.51,136.793 77.3433,138.127 77.5,139.5C 74.8122,138.976 73.3122,137.309 73,134.5C 72.6174,135.056 72.1174,135.389 71.5,135.5C 74.5807,128.34 77.914,121.34 81.5,114.5C 81.3691,115.376 81.7025,116.043 82.5,116.5C 83.8924,115.395 85.059,114.061 86,112.5C 90.8037,100.215 95.6371,87.8814 100.5,75.5C 101.791,75.2627 102.791,75.596 103.5,76.5 Z"/></g>
<g><path style="opacity:1" fill="#8d8e99" d="M 129.5,65.5 C 132.307,66.879 134.974,68.5457 137.5,70.5C 140.248,73.3864 143.248,76.0531 146.5,78.5C 146.094,80.9842 144.927,82.9842 143,84.5C 136.754,80.5456 130.588,76.7123 124.5,73C 123.748,72.3292 123.414,71.4959 123.5,70.5C 123.69,66.6426 125.69,64.976 129.5,65.5 Z"/></g>
<g><path style="opacity:1" fill="#91909c" d="M 150.5,74.5 C 150.833,74.5 151.167,74.5 151.5,74.5C 151.33,75.8221 151.663,76.9887 152.5,78C 155.167,79.6667 157.833,81.3333 160.5,83C 162.167,83.1667 163.833,83.3333 165.5,83.5C 167.64,83.4439 169.306,82.7773 170.5,81.5C 171.167,81.5 171.833,81.5 172.5,81.5C 172.918,87.6694 173.585,93.6694 174.5,99.5C 169.833,100.833 165.167,100.833 160.5,99.5C 164.226,99.8226 167.893,99.4892 171.5,98.5C 162.552,98.8564 154.886,96.0231 148.5,90C 147.423,89.5304 146.423,89.6971 145.5,90.5C 143.973,90.573 142.973,89.9063 142.5,88.5C 143.496,88.4142 144.329,88.7476 145,89.5C 146.564,84.2973 148.398,79.2973 150.5,74.5 Z"/></g>
<g><path style="opacity:0.937" fill="#787884" d="M 12.5,80.5 C 23.4988,79.8887 34.4988,79.7221 45.5,80C 48.8461,81.8508 50.8461,84.6841 51.5,88.5C 48.9126,86.2566 46.5793,83.7566 44.5,81C 39.8452,80.5008 35.1785,80.3342 30.5,80.5C 30.5,85.8333 30.5,91.1667 30.5,96.5C 27.0343,95.9685 23.5343,95.6352 20,95.5C 14.5111,96.388 9.01108,97.0547 3.5,97.5C 3.5,91.1667 3.5,84.8333 3.5,78.5C 7.01215,77.9455 10.0122,78.6122 12.5,80.5 Z"/></g>
<g><path style="opacity:0.588" fill="#767683" d="M 151.5,74.5 C 156.891,79.3612 163.225,81.6945 170.5,81.5C 169.306,82.7773 167.64,83.4439 165.5,83.5C 163.833,83.3333 162.167,83.1667 160.5,83C 157.833,81.3333 155.167,79.6667 152.5,78C 151.663,76.9887 151.33,75.8221 151.5,74.5 Z"/></g>
<g><path style="opacity:1" fill="#7d7d89" d="M 123.5,70.5 C 123.414,71.4959 123.748,72.3292 124.5,73C 130.588,76.7123 136.754,80.5456 143,84.5C 144.927,82.9842 146.094,80.9842 146.5,78.5C 143.248,76.0531 140.248,73.3864 137.5,70.5C 141.09,71.6284 144.423,73.295 147.5,75.5C 148.298,75.0431 148.631,74.3764 148.5,73.5C 149.492,73.3284 150.158,73.6618 150.5,74.5C 148.398,79.2973 146.564,84.2973 145,89.5C 144.329,88.7476 143.496,88.4142 142.5,88.5C 135.833,84.1667 129.167,79.8333 122.5,75.5C 123.239,75.631 123.906,75.4643 124.5,75C 122.534,73.6534 122.201,72.1534 123.5,70.5 Z"/></g>
<g><path style="opacity:0.886" fill="#6b6b77" d="M 172.5,81.5 C 178.408,83.6303 184.408,83.9637 190.5,82.5C 190.5,83.5 190.5,84.5 190.5,85.5C 185.305,85.1795 180.305,85.5128 175.5,86.5C 175.5,89.5 175.5,92.5 175.5,95.5C 180.749,95.8587 185.749,96.8587 190.5,98.5C 185.105,98.2665 179.772,98.5998 174.5,99.5C 173.585,93.6694 172.918,87.6694 172.5,81.5 Z"/></g>
<g><path style="opacity:1" fill="#8e8e9a" d="M 12.5,80.5 C 12.5,81.5 12.5,82.5 12.5,83.5C 17.8333,83.5 23.1667,83.5 28.5,83.5C 28.5,86.5 28.5,89.5 28.5,92.5C 21.0704,92.3461 13.7371,93.0128 6.5,94.5C 6.5,89.8333 6.5,85.1667 6.5,80.5C 8.5,80.5 10.5,80.5 12.5,80.5 Z"/></g>
<g><path style="opacity:1" fill="#8f8f9b" d="M 175.5,95.5 C 175.5,92.5 175.5,89.5 175.5,86.5C 180.833,86.5 186.167,86.5 191.5,86.5C 191.5,85.5 191.5,84.5 191.5,83.5C 193.167,83.5 194.833,83.5 196.5,83.5C 196.5,88.1667 196.5,92.8333 196.5,97.5C 189.615,95.9318 182.615,95.2652 175.5,95.5 Z"/></g>
<g><path style="opacity:1" fill="#8e909a" d="M 103.5,76.5 C 105.311,76.572 106.644,77.4053 107.5,79C 103.714,88.3973 99.7138,97.5639 95.5,106.5C 94.5,106.5 93.5,106.5 92.5,106.5C 92.9689,109.393 91.9689,111.393 89.5,112.5C 89.3893,111.883 89.056,111.383 88.5,111C 90.5,107 92.5,103 94.5,99C 94.1667,98.6667 93.8333,98.3333 93.5,98C 96.0519,93.8636 98.3852,89.8636 100.5,86C 100.043,85.586 99.7093,85.086 99.5,84.5C 100.496,81.5493 101.83,78.8827 103.5,76.5 Z"/></g>
<g><path style="opacity:1" fill="#8f909c" d="M 51.5,88.5 C 52.8193,94.4189 53.486,100.419 53.5,106.5C 52.5655,105.432 52.2322,104.099 52.5,102.5C 47.1667,102.5 41.8333,102.5 36.5,102.5C 36.5,102.167 36.5,101.833 36.5,101.5C 39.3965,101.875 42.0632,101.375 44.5,100C 42.3095,97.3839 40.9762,94.3839 40.5,91C 37.5682,89.8551 34.5682,89.0218 31.5,88.5C 31.5,91.1667 31.5,93.8333 31.5,96.5C 31.1667,96.5 30.8333,96.5 30.5,96.5C 30.5,91.1667 30.5,85.8333 30.5,80.5C 35.1785,80.3342 39.8452,80.5008 44.5,81C 46.5793,83.7566 48.9126,86.2566 51.5,88.5 Z"/></g>
<g><path style="opacity:1" fill="#81818e" d="M 36.5,101.5 C 35.8666,98.8664 34.1999,97.1998 31.5,96.5C 31.5,93.8333 31.5,91.1667 31.5,88.5C 34.5682,89.0218 37.5682,89.8551 40.5,91C 40.9762,94.3839 42.3095,97.3839 44.5,100C 42.0632,101.375 39.3965,101.875 36.5,101.5 Z"/></g>
<g><path style="opacity:0.698" fill="#767683" d="M 160.5,99.5 C 154.243,98.5721 149.243,95.5721 145.5,90.5C 146.423,89.6971 147.423,89.5304 148.5,90C 154.886,96.0231 162.552,98.8564 171.5,98.5C 167.893,99.4892 164.226,99.8226 160.5,99.5 Z"/></g>
<g><path style="opacity:1" fill="#777783" d="M 199.5,81.5 C 199.5,87.5 199.5,93.5 199.5,99.5C 196.287,99.81 193.287,99.4767 190.5,98.5C 185.749,96.8587 180.749,95.8587 175.5,95.5C 182.615,95.2652 189.615,95.9318 196.5,97.5C 196.5,92.8333 196.5,88.1667 196.5,83.5C 194.833,83.5 193.167,83.5 191.5,83.5C 191.5,84.5 191.5,85.5 191.5,86.5C 186.167,86.5 180.833,86.5 175.5,86.5C 180.305,85.5128 185.305,85.1795 190.5,85.5C 190.5,84.5 190.5,83.5 190.5,82.5C 193.287,81.5233 196.287,81.19 199.5,81.5 Z"/></g>
<g><path style="opacity:0.733" fill="#9b9aa7" d="M 53.5,106.5 C 54.7384,108.214 55.405,110.214 55.5,112.5C 53.9261,110.898 53.2594,108.898 53.5,106.5 Z"/></g>
<g><path style="opacity:1" fill="#8e8f9a" d="M 95.5,106.5 C 94.3141,111.236 92.8141,115.902 91,120.5C 90.2204,122.387 90.3871,124.054 91.5,125.5C 91.6716,126.492 91.3382,127.158 90.5,127.5C 90.2172,126.711 89.7172,126.044 89,125.5C 86.0397,130.586 83.2064,135.753 80.5,141C 79.0024,141.585 78.0024,141.085 77.5,139.5C 77.3433,138.127 77.51,136.793 78,135.5C 82.1126,127.853 85.4459,120.186 88,112.5C 88.69,113.738 89.19,113.738 89.5,112.5C 91.9689,111.393 92.9689,109.393 92.5,106.5C 93.5,106.5 94.5,106.5 95.5,106.5 Z"/></g>
<g><path style="opacity:1" fill="#8d8f9a" d="M 47.5,132.5 C 46.6618,132.158 46.3284,131.492 46.5,130.5C 47.6935,130.03 48.3601,129.03 48.5,127.5C 46.9494,119.851 44.616,112.518 41.5,105.5C 44.0865,104.52 46.7531,104.187 49.5,104.5C 52.7752,116.061 56.1085,127.561 59.5,139C 58.372,141.296 56.7054,143.129 54.5,144.5C 52.7536,140.263 51.4203,135.93 50.5,131.5C 49.209,131.263 48.209,131.596 47.5,132.5 Z"/></g>
<g><path style="opacity:1" fill="#797986" d="M 36.5,102.5 C 41.8333,102.5 47.1667,102.5 52.5,102.5C 52.2322,104.099 52.5655,105.432 53.5,106.5C 53.2594,108.898 53.9261,110.898 55.5,112.5C 58.0298,120.091 60.3632,127.757 62.5,135.5C 63.0283,136.847 63.195,138.181 63,139.5C 58.9992,142.669 55.1659,146.003 51.5,149.5C 50.2894,144.115 48.9561,138.448 47.5,132.5C 48.209,131.596 49.209,131.263 50.5,131.5C 51.4203,135.93 52.7536,140.263 54.5,144.5C 56.7054,143.129 58.372,141.296 59.5,139C 56.1085,127.561 52.7752,116.061 49.5,104.5C 46.7531,104.187 44.0865,104.52 41.5,105.5C 44.616,112.518 46.9494,119.851 48.5,127.5C 48.3601,129.03 47.6935,130.03 46.5,130.5C 43.7474,120.906 40.4141,111.572 36.5,102.5 Z"/></g>
<g><path style="opacity:0.99" fill="#8e8f9b" d="M 62.5,135.5 C 64.1454,136.479 65.4787,137.812 66.5,139.5C 67.5178,138.807 68.5178,138.141 69.5,137.5C 68.7527,141.036 66.7527,142.203 63.5,141C 61.5,143 59.5,145 57.5,147C 59.5161,147.899 61.1828,149.233 62.5,151C 64.5,151.667 66.5,151.667 68.5,151C 70.8497,147.158 74.183,145.492 78.5,146C 78.2519,150.85 76.2519,155.183 72.5,159C 67.0303,162.252 61.6969,162.085 56.5,158.5C 54.0764,155.992 52.4097,152.992 51.5,149.5C 55.1659,146.003 58.9992,142.669 63,139.5C 63.195,138.181 63.0283,136.847 62.5,135.5 Z"/></g>
<g><path style="opacity:1" fill="#70707d" d="M 90.5,127.5 C 87.64,134.485 84.9733,141.152 82.5,147.5C 79.2117,144.228 75.545,141.228 71.5,138.5C 70.6143,137.675 70.281,136.675 70.5,135.5C 70.8333,135.5 71.1667,135.5 71.5,135.5C 72.1174,135.389 72.6174,135.056 73,134.5C 73.3122,137.309 74.8122,138.976 77.5,139.5C 78.0024,141.085 79.0024,141.585 80.5,141C 83.2064,135.753 86.0397,130.586 89,125.5C 89.7172,126.044 90.2172,126.711 90.5,127.5 Z"/></g>
<g><path style="opacity:1" fill="#848591" d="M 70.5,135.5 C 70.281,136.675 70.6143,137.675 71.5,138.5C 75.545,141.228 79.2117,144.228 82.5,147.5C 80.0235,151.778 77.5235,156.112 75,160.5C 69.396,165.348 63.5627,165.681 57.5,161.5C 56.8728,160.583 56.5394,159.583 56.5,158.5C 61.6969,162.085 67.0303,162.252 72.5,159C 76.2519,155.183 78.2519,150.85 78.5,146C 74.183,145.492 70.8497,147.158 68.5,151C 66.5,151.667 64.5,151.667 62.5,151C 61.1828,149.233 59.5161,147.899 57.5,147C 59.5,145 61.5,143 63.5,141C 66.7527,142.203 68.7527,141.036 69.5,137.5C 69.3284,136.508 69.6618,135.842 70.5,135.5 Z"/></g>
</svg>

<svg xmlns="http://www.w3.org/2000/svg" width="200" height="200" style="shape-rendering:geometricPrecision;text-rendering:geometricPrecision;image-rendering:optimizeQuality;fill-rule:evenodd;clip-rule:evenodd"><path style="opacity:.475" fill="#777884" d="M122.5 57.5c-.06.543-.393.876-1 1-4.986-2.834-10.32-3.667-16-2.5-2.652 2.848-4.652 6.015-6 9.5 1.001-9.832 6.334-13.665 16-11.5 2.569.898 4.902 2.065 7 3.5z"/><path style="opacity:1" fill="#8d8e9a" d="M122.5 57.5c1.653.16 2.986.826 4 2-2.884 4.607-5.217 9.607-7 15 .457.797 1.124 1.13 2 1-1.838 1.178-3.505.845-5-1 2.272-1.297 3.105-3.297 2.5-6-2.369.227-4.869.393-7.5.5a16.66 16.66 0 0 1-4 4c1.669 2.356 3.669 3.19 6 2.5.153 3.035-1.18 5.035-4 6 .221-1.235.888-2.235 2-3a9297.543 9297.543 0 0 1-13-7.5c.906-1.7 1.24-3.533 1-5.5 1.348-3.485 3.348-6.652 6-9.5 5.68-1.167 11.014-.334 16 2.5.607-.124.94-.457 1-1z"/><path style="opacity:1" fill="#737480" d="M126.5 59.5c.838.342 1.172 1.008 1 2 .027 1.7.694 3.033 2 4-3.81-.524-5.81 1.143-6 5-1.299 1.653-.966 3.153 1 4.5a2.427 2.427 0 0 1-2 .5h-1c-.876.13-1.543-.203-2-1 1.783-5.393 4.116-10.393 7-15z"/><path style="opacity:.886" fill="#656673" d="M127.5 61.5a328.516 328.516 0 0 0 21 12c.131.876-.202 1.543-1 2a35.168 35.168 0 0 0-10-5 46.706 46.706 0 0 0-8-5c-1.306-.967-1.973-2.3-2-4z"/><path style="opacity:1" fill="#7d7e8a" d="M116.5 74.5a5.728 5.728 0 0 0-3 1c-2.331.69-4.331-.144-6-2.5a16.66 16.66 0 0 0 4-4c2.631-.107 5.131-.273 7.5-.5.605 2.703-.228 4.703-2.5 6z"/><path style="opacity:.926" fill="#747481" d="M99.5 65.5c.24 1.967-.094 3.8-1 5.5 4.301 2.486 8.635 4.986 13 7.5-1.112.765-1.779 1.765-2 3a643.066 643.066 0 0 1-18 44c-1.113-1.446-1.28-3.113-.5-5a112.698 112.698 0 0 0 4.5-14 520.569 520.569 0 0 0 12-27.5c-.856-1.595-2.189-2.428-4-2.5-.709-.904-1.709-1.237-3-1a26393.632 26393.632 0 0 0-14.5 37 14.833 14.833 0 0 1-3.5 4c-.797-.457-1.13-1.124-1-2a703.23 703.23 0 0 1 16-40.5c-.897-3.155-.23-5.988 2-8.5z"/><path style="opacity:1" fill="#888894" d="M103.5 76.5c-1.67 2.383-3.004 5.05-4 8a3.65 3.65 0 0 0 1 1.5 267.825 267.825 0 0 1-7 12l1 1-6 12c.556.383.89.883 1 1.5-.31 1.238-.81 1.238-1.5 0-2.554 7.686-5.887 15.353-10 23a8.435 8.435 0 0 0-.5 4c-2.688-.524-4.188-2.191-4.5-5-.383.556-.883.889-1.5 1 3.08-7.16 6.414-14.16 10-21-.13.876.203 1.543 1 2a14.833 14.833 0 0 0 3.5-4c4.804-12.285 9.637-24.619 14.5-37 1.291-.237 2.291.096 3 1z"/><path style="opacity:1" fill="#8d8e99" d="M129.5 65.5a46.706 46.706 0 0 1 8 5 72.988 72.988 0 0 0 9 8c-.406 2.484-1.573 4.484-3.5 6A1294.26 1294.26 0 0 0 124.5 73c-.752-.67-1.086-1.504-1-2.5.19-3.857 2.19-5.524 6-5z"/><path style="opacity:1" fill="#91909c" d="M150.5 74.5h1c-.17 1.322.163 2.489 1 3.5l8 5 5 .5c2.14-.056 3.806-.723 5-2h2c.418 6.17 1.085 12.17 2 18-4.667 1.333-9.333 1.333-14 0a31.12 31.12 0 0 0 11-1c-8.948.356-16.614-2.477-23-8.5-1.077-.47-2.077-.303-3 .5-1.527.073-2.527-.594-3-2 .996-.086 1.829.248 2.5 1a132.088 132.088 0 0 1 5.5-15z"/><path style="opacity:.937" fill="#787884" d="M12.5 80.5a408.523 408.523 0 0 1 33-.5c3.346 1.85 5.346 4.684 6 8.5a48.753 48.753 0 0 1-7-7.5 98.433 98.433 0 0 0-14-.5v16a92.548 92.548 0 0 0-10.5-1 208.344 208.344 0 0 1-16.5 2v-19c3.512-.555 6.512.112 9 2z"/><path style="opacity:.588" fill="#767683" d="M151.5 74.5c5.391 4.861 11.725 7.195 19 7-1.194 1.277-2.86 1.944-5 2l-5-.5-8-5c-.837-1.011-1.17-2.178-1-3.5z"/><path style="opacity:1" fill="#7d7d89" d="M123.5 70.5c-.086.996.248 1.83 1 2.5A1294.26 1294.26 0 0 1 143 84.5c1.927-1.516 3.094-3.516 3.5-6a72.988 72.988 0 0 1-9-8 35.168 35.168 0 0 1 10 5c.798-.457 1.131-1.124 1-2 .992-.172 1.658.162 2 1a132.088 132.088 0 0 0-5.5 15c-.671-.752-1.504-1.086-2.5-1l-20-13a2.427 2.427 0 0 0 2-.5c-1.966-1.347-2.299-2.847-1-4.5z"/><path style="opacity:.886" fill="#6b6b77" d="M172.5 81.5c5.908 2.13 11.908 2.464 18 1v3c-5.195-.32-10.195.013-15 1v9c5.249.359 10.249 1.359 15 3a75.414 75.414 0 0 0-16 1 205.827 205.827 0 0 1-2-18z"/><path style="opacity:1" fill="#8e8e9a" d="M12.5 80.5v3h16v9a98.789 98.789 0 0 0-22 2v-14h6z"/><path style="opacity:1" fill="#8f8f9b" d="M175.5 95.5v-9h16v-3h5v14a81.99 81.99 0 0 0-21-2z"/><path style="opacity:1" fill="#8e909a" d="M103.5 76.5c1.811.072 3.144.905 4 2.5a520.569 520.569 0 0 1-12 27.5h-3c.469 2.893-.531 4.893-3 6-.11-.617-.444-1.117-1-1.5l6-12-1-1a267.825 267.825 0 0 0 7-12 3.65 3.65 0 0 1-1-1.5c.996-2.95 2.33-5.617 4-8z"/><path style="opacity:1" fill="#8f909c" d="M51.5 88.5a83.376 83.376 0 0 1 2 18c-.934-1.068-1.268-2.401-1-4h-16v-1c2.897.375 5.563-.125 8-1.5-2.19-2.616-3.524-5.616-4-9a45.785 45.785 0 0 0-9-2.5v8h-1v-16c4.678-.166 9.345 0 14 .5a48.753 48.753 0 0 0 7 7.5z"/><path style="opacity:1" fill="#81818e" d="M36.5 101.5c-.633-2.634-2.3-4.3-5-5v-8a45.785 45.785 0 0 1 9 2.5c.476 3.384 1.81 6.384 4 9-2.437 1.375-5.103 1.875-8 1.5z"/><path style="opacity:.698" fill="#767683" d="M160.5 99.5c-6.257-.928-11.257-3.928-15-9 .923-.803 1.923-.97 3-.5 6.386 6.023 14.052 8.856 23 8.5a31.12 31.12 0 0 1-11 1z"/><path style="opacity:1" fill="#777783" d="M199.5 81.5v18c-3.213.31-6.213-.023-9-1-4.751-1.641-9.751-2.641-15-3a81.99 81.99 0 0 1 21 2v-14h-5v3h-16c4.805-.987 9.805-1.32 15-1v-3c2.787-.977 5.787-1.31 9-1z"/><path style="opacity:.733" fill="#9b9aa7" d="M53.5 106.5c1.238 1.714 1.905 3.714 2 6-1.574-1.602-2.24-3.602-2-6z"/><path style="opacity:1" fill="#8e8f9a" d="M95.5 106.5a112.698 112.698 0 0 1-4.5 14c-.78 1.887-.613 3.554.5 5 .172.992-.162 1.658-1 2-.283-.789-.783-1.456-1.5-2a347.236 347.236 0 0 0-8.5 15.5c-1.498.585-2.498.085-3-1.5a8.435 8.435 0 0 1 .5-4c4.113-7.647 7.446-15.314 10-23 .69 1.238 1.19 1.238 1.5 0 2.469-1.107 3.469-3.107 3-6h3z"/><path style="opacity:1" fill="#8d8f9a" d="M47.5 132.5c-.838-.342-1.172-1.008-1-2 1.194-.47 1.86-1.47 2-3a105.877 105.877 0 0 0-7-22 16.874 16.874 0 0 1 8-1 2952.537 2952.537 0 0 0 10 34.5c-1.128 2.296-2.795 4.129-5 5.5a73.022 73.022 0 0 1-4-13c-1.291-.237-2.291.096-3 1z"/><path style="opacity:1" fill="#797986" d="M36.5 102.5h16c-.268 1.599.066 2.932 1 4-.24 2.398.426 4.398 2 6a458.558 458.558 0 0 1 7 23c.528 1.347.695 2.681.5 4-4 3.169-7.834 6.503-11.5 10a923.433 923.433 0 0 0-4-17c.709-.904 1.709-1.237 3-1a73.022 73.022 0 0 0 4 13c2.205-1.371 3.872-3.204 5-5.5a2952.537 2952.537 0 0 1-10-34.5 16.874 16.874 0 0 0-8 1 105.877 105.877 0 0 1 7 22c-.14 1.53-.806 2.53-2 3a232.367 232.367 0 0 0-10-28z"/><path style="opacity:.99" fill="#8e8f9b" d="M62.5 135.5c1.645.979 2.979 2.312 4 4a184.223 184.223 0 0 1 3-2c-.747 3.536-2.747 4.703-6 3.5l-6 6a12.473 12.473 0 0 1 5 4c2 .667 4 .667 6 0 2.35-3.842 5.683-5.508 10-5-.248 4.85-2.248 9.183-6 13-5.47 3.252-10.803 3.085-16-.5-2.424-2.508-4.09-5.508-5-9 3.666-3.497 7.5-6.831 11.5-10 .195-1.319.028-2.653-.5-4z"/><path style="opacity:1" fill="#70707d" d="M90.5 127.5a1262.13 1262.13 0 0 0-8 20c-3.288-3.272-6.955-6.272-11-9-.886-.825-1.219-1.825-1-3h1c.617-.111 1.117-.444 1.5-1 .312 2.809 1.812 4.476 4.5 5 .502 1.585 1.502 2.085 3 1.5a347.236 347.236 0 0 1 8.5-15.5c.717.544 1.217 1.211 1.5 2z"/><path style="opacity:1" fill="#848591" d="M70.5 135.5c-.219 1.175.114 2.175 1 3 4.045 2.728 7.712 5.728 11 9a5265.59 5265.59 0 0 0-7.5 13c-5.604 4.848-11.437 5.181-17.5 1a5.577 5.577 0 0 1-1-3c5.197 3.585 10.53 3.752 16 .5 3.752-3.817 5.752-8.15 6-13-4.317-.508-7.65 1.158-10 5-2 .667-4 .667-6 0a12.473 12.473 0 0 0-5-4l6-6c3.253 1.203 5.253.036 6-3.5-.172-.992.162-1.658 1-2z"/></svg>
